resources/haticons/SVG/login.svg

<!-- Generated by IcoMoon.io -->
<svg version="1.1" xmlns="http://www.w3.org/2000/svg" width="24" height="24" viewBox="0 0 24 24">
<title>login</title>
<path d="M11.016 6.984l-1.406 1.406 2.578 2.625h-10.172v1.969h10.172l-2.578 2.625 1.406 1.406 4.969-5.016zM20.016 18.984h-8.016v2.016h8.016q0.797 0 1.383-0.586t0.586-1.43v-13.969q0-0.844-0.586-1.43t-1.383-0.586h-8.016v2.016h8.016v13.969z"></path>
</svg>

<svg xmlns="http://www.w3.org/2000/svg" width="24" height="24"><path d="M11.016 6.984L9.61 8.39l2.578 2.625H2.016v1.969h10.172L9.61 15.609l1.406 1.406 4.969-5.016zm9 12H12V21h8.016q.797 0 1.383-.586t.586-1.43V5.015q0-.844-.586-1.43t-1.383-.586H12v2.016h8.016v13.969z"/></svg>
